X: 3443
M: C
L: 1/8
K: D
(ag) |\
f2 (3(fed) e2 (3(edc) | d2A2 Adfa | b2c2 cegc' | d'2a2 a2(ag) |\
f2 (3(fed) e2 (3(edc) | d2A2 Adfa | b2B2 BAdf | e2d2 d2 :|
|: (dc) |\


